X:1
T:Title
%%score { 1 | 2 }
L:1/8
M:4/4
K:Ab
V:1 treble nm="Grand Piano"
V:2 bass 
V:1
 z4 z2 z[Q:1/4=96] [CA] | [Ec][Ec][CA][CA] [Ec][Ec] [CA]2 |[M:7/8] B2 B>Bc e2 |[M:1/8] e | %4
[M:4/4] [Ec][Ec][CA][CA] [Ec][Ec] [CA]2 | B2 c>B [CA]4 | [Ec]2 [CE]>[CE] [DF] .[CA]3 | %7
 B2 B>B c .e3 | [Ec]2 [CE]>[CE] [DF] .[FA]3 | c2 B>B [CA]4 | [Ec]2 [CE]>[CE] [DF] .[CA]3 | %11
 B2 B>B c .e3 | [Ec]2 [CE]>[CE] [DF] .[FA]3 | c2 B>B [CA]4 |] %14
V:2
 z4 z2 z [A,,E,] | [A,,A,][A,,A,][A,,E,][A,,E,] [A,,A,][A,,A,] [A,,E,]2 | %2
[M:7/8] [E,G,E]2 [E,G,E]>[E,G,E][A,E] [A,CE]2 |[M:1/8] [A,CE] | %4
[M:4/4] [A,,A,][A,,A,][A,,E,][A,,E,] [A,,A,][A,,A,] [A,,E,]2 | [E,G,E]2 [E,A,E]>[E,G,D] [A,,A,]4 | %6
 [A,,A,]2 [A,,A,]>[A,,A,] [D,A,] .[A,,A,]3 | [E,G,E]2 [E,G,E]>[E,G,E] [A,E] .[A,CE]3 | %8
 [A,,A,]2 [A,,A,]>[A,,A,] [D,A,] .[D,A,]3 | [E,A,E]2 [E,G,D]>[E,G,D] [A,,A,]4 | %10
 [A,,A,]2 [A,,A,]>[A,,A,] [D,A,] .[A,,A,]3 | [E,G,E]2 [E,G,E]>[E,G,E] [A,E] .[A,CE]3 | %12
 [A,,A,]2 [A,,A,]>[A,,A,] [D,A,] .[D,A,]3 | [E,A,E]2 [E,G,D]>[E,G,D] [A,,A,]4 |] %14

